Obsidian-SemiLight/actions/22s/step_object_GravitationForce.svg

<svg viewBox="0 0 22 22" xmlns="http://www.w3.org/2000/svg"><path d="m12.087891 1 .367187.3789062 1.621094 1.6210938h-2.076172-8v1h10.076172 2.423828l-.509766-.5-2.5-2.5zm-8.087891 4v14h1v-7h6v-1h-6v-5h8v-1h-8z" fill="#4d4d4d"/><path d="m15.5 12c-1.933 0-3.5 1.567-3.5 3.5s1.567 3.5 3.5 3.5c1.73865-.002 3.25163-1.27919 3.5-3v-1h-3v1h1.945312c-.23728 1.16244-1.258902 1.99802-2.445312 2-1.38071 0-2.5-1.11929-2.5-2.5s1.11929-2.5 2.5-2.5c.663.0001 1.298808.263562 1.767578.732422l.705078-.705078c-.65548-.65664-1.544846-1.026164-2.472656-1.027344z" fill="#3daee9"/></svg>

<svg xmlns="http://www.w3.org/2000/svg" viewBox="0 0 22 22">
  <defs id="defs3051">
    <style type="text/css" id="current-color-scheme">
      .ColorScheme-Text {
        color:#4d4d4d;
      }
      .ColorScheme-Highlight {
        color:#3daee9;
      }
      </style>
  </defs>
 <path 
     style="fill:currentColor;fill-opacity:1;stroke:none" 
     d="M 12.087891 1 L 12.455078 1.3789062 L 14.076172 3 L 12 3 L 4 3 L 4 4 L 14.076172 4 L 16.5 4 L 15.990234 3.5 L 13.490234 1 L 12.087891 1 z M 4 5 L 4 19 L 5 19 L 5 12 L 11 12 L 11 11 L 5 11 L 5 6 L 13 6 L 13 5 L 5 5 L 4 5 z "
     class="ColorScheme-Text"
     />
 <path 
     style="fill:currentColor;fill-opacity:1;stroke:none" 
     d="M 15.5 12 C 13.567 12 12 13.567 12 15.5 C 12 17.433 13.567 19 15.5 19 C 17.23865 18.998 18.75163 17.72081 19 16 L 19 15 L 16 15 L 16 16 L 17.945312 16 C 17.708032 17.16244 16.68641 17.99802 15.5 18 C 14.11929 18 13 16.88071 13 15.5 C 13 14.11929 14.11929 13 15.5 13 C 16.163 13.0001 16.798808 13.263562 17.267578 13.732422 L 17.972656 13.027344 C 17.317176 12.370704 16.42781 12.00118 15.5 12 z "
     class="ColorScheme-Highlight"
     />
</svg>
